X:1
T:Title
%%score { ( 1 3 ) | ( 2 4 ) }
L:1/8
M:12/8
K:Bb
V:1 treble nm="Grand Piano"
V:3 treble 
V:2 bass 
V:4 bass 
V:1
 z6 z2[Q:1/4=100] [DF] [DF][DG][DA] | [DB]2 [DB] [EB]2 [EB] [DB]2 [DF] GGB | %2
 .F3 EEE D2 [DF] [DF][FB]c | d2 d d2 c B2 c dcB | c6- c2 z z3 | %5
 [DB]2 [EB] [EB]2 [EB] [DB]2 F GG[GB] | .F3 EEE D2 [DF] [DF][FB]c | d2 d d2 [Gc] B2 B ABc | %8
[M:4/4] [DFB]8 |[M:2/4] [DB][Fd] [=E_d][F=d] |[M:6/4] B2- [DB-] [EB-]2 [EB-] [DB]2 FGGB | %11
[M:4/4] F8 |[M:2/4] [DF][DF] [FB]c |[M:6/4] d2 d d2 [EAc] [DGB]2 [FAc][FBd][Fc][=EGB] | %14
[M:4/4] c2- [FAc-][=EGc-] [FAc-][GBc-] [FAc]2 |[M:2/4] [DB][Fd] [=E_d][F=d] |[M:6/4] .B12 | %17
[M:4/4] F8 |[M:2/4] [DF][DF] [FB]c |[M:6/4] d2 d d2 [Gc] B2 BABc | %20
[M:4/4] B2- [FB-][FB-] [DB-][EB-] [FB]2 |] %21
V:2
 z6 z2 [B,,B,] [B,,B,][B,,B,][B,,B,] | %1
 [B,,F,]2 [B,,F,] [B,,G,]2 [B,,G,] [B,,F,]2 [B,,B,] [E,B,E][E,B,E][E,G,E] | %2
 [D,B,]2 [D,B,] [C,A,][C,A,][C,A,] [B,,B,]2 [B,,B,] [B,,B,][D,B,][K:treble][F,A,F] | %3
 [B,F]2 [B,F] [B,F]2[K:bass] [F,A,E] [G,B,D]2[K:treble] [F,A,F] [B,F][A,CF][G,C=E] | %4
 [F,A,F]2[K:bass] [F,A,] [C,G,][C,A,][C,B,] [F,A,]2 [F,A,] [F,A,][F,B,=E][F,C_E] | %5
 [B,,B,]2 [B,,F,] [B,,G,]2 [B,,G,] [B,,F,]2 [D,B,] [E,B,E][E,B,E][E,B,] | %6
 [D,B,]2 [D,B,] [C,A,][C,A,][C,A,] [B,,B,]2 [B,,B,] [B,,B,][D,B,][K:treble][F,A,F] | %7
 [B,F]2 [B,DF] [B,FB]2[K:bass] [E,E] [F,DF]2 [F,DF] [F,CF][F,DF][F,EF] |[M:4/4] B,,8 | %9
[M:2/4] [B,,F,][B,,B,] [B,,B,][B,,B,] | %10
[M:6/4] [B,,F,]2 [B,,F,] [B,,G,]2 [B,,G,] [B,,F,]2 [D,B,][E,B,E][E,B,E][G,B,E] | %11
[M:4/4] [B,D]2 B,[F,A,] [F,A,][F,A,] [B,,B,]2 |[M:2/4] [B,,B,][B,,B,] [D,B,][K:treble][F,A,F] | %13
[M:6/4] [B,F]2 [B,DF] [B,FB]2[K:bass] F, G,2 F,B,A,G, |[M:4/4] F,2 F,C, C,C, F,2 | %15
[M:2/4] [B,,F,][B,,B,] [B,,B,][B,,B,] | %16
[M:6/4] [B,,F,]2 [B,,F,] [B,,G,]2 [B,,G,] [B,,F,]2 [D,B,][E,B,E][E,B,E][G,B,E] | %17
[M:4/4] [B,D]2 B,[F,A,] [F,A,][F,A,] [B,,B,]2 |[M:2/4] [B,,B,][B,,B,] [D,B,][K:treble][F,A,F] | %19
[M:6/4] [B,F]2 [B,DF] [B,FB]2[K:bass] [E,E] [F,DF]2 [F,DF][F,CF][F,DF][F,EF] | %20
[M:4/4] z2[K:treble] DD B,C D2 |] %21
V:3
 x12 | x12 | z2 F- F3- F2 z z3 | x12 | z2 F =EFG F2 F FGA | x12 | z2 F- F3- F2 z z3 | x12 | %8
[M:4/4] x8 |[M:2/4] x4 |[M:6/4] .D6 z6 |[M:4/4] z2 DD CC D2 |[M:2/4] x4 |[M:6/4] x12 | %14
[M:4/4] [FA]2 z2 z4 |[M:2/4] x4 |[M:6/4] D2 D E2 E D2 FGGB |[M:4/4] z2 DD CC D2 |[M:2/4] x4 | %19
[M:6/4] x12 |[M:4/4] [DF]2 z2 z4 |] %21
V:4
 x12 | x12 | x11[K:treble] x | x5[K:bass] x3[K:treble] x4 | x2[K:bass] x10 | x12 | %6
 x11[K:treble] x | x5[K:bass] x7 |[M:4/4] x8 |[M:2/4] x4 |[M:6/4] x12 |[M:4/4] x8 | %12
[M:2/4] x3[K:treble] x |[M:6/4] x5[K:bass] x7 |[M:4/4] x8 |[M:2/4] x4 |[M:6/4] x12 |[M:4/4] x8 | %18
[M:2/4] x3[K:treble] x |[M:6/4] x5[K:bass] x7 |[M:4/4] B,,8[K:treble] |] %21

